X:725
T:»Säxstäigaren».
S:Efter skomakaren Pucksson, Klintehamn.
O:Gotland, Klintehamn
R:figurdans
M:2/4
L:1/16
K:D
A2d2 A2d2|(dc)(ec) A4|(ABcd) (e2g2)|(fg)(af) d4:|
|:(ga)(bg) e4|(df)(af) d4|(Acec) (Acec)|(de)(fg) a4|
(ga)(bg) e4|(df)(af) d4|(Acec) (Acec)|d2d2 d2 z2:|

